assets/images/techs/js.svg

<?xml version="1.0" encoding="UTF-8"?>
<svg width="50px" height="50px" viewBox="0 0 50 50" version="1.1" xmlns="http://www.w3.org/2000/svg" xmlns:xlink="http://www.w3.org/1999/xlink">
    <title>js</title>
    <g id="Page-1" stroke="none" stroke-width="1" fill="none" fill-rule="evenodd">
        <g id="js" fill="#133A94" fill-rule="nonzero">
            <path d="M0,0 L50,0 L50,50 L0,50 L0,0 Z M45.9042,38.075 C45.5396,35.7937 44.0542,33.8771 39.6479,32.0896 C38.1146,31.3708 36.4104,30.8708 35.9042,29.7146 C35.7146,29.0271 35.6854,28.6521 35.8083,28.2458 C36.1208,26.9 37.7146,26.4958 38.9646,26.8708 C39.7771,27.1208 40.5271,27.7458 40.9979,28.7458 C43.1521,27.3375 43.1521,27.3375 44.6542,26.4021 C44.0917,25.5271 43.8125,25.15 43.4333,24.7771 C42.1208,23.3083 40.3729,22.5583 37.5292,22.6229 L36.0604,22.8083 C34.6521,23.1521 33.3104,23.9021 32.4979,24.9021 C30.1229,27.5917 30.8083,32.2792 33.6833,34.2167 C36.5271,36.3417 40.6854,36.8083 41.2167,38.8104 C41.7167,41.2479 39.4042,42.0292 37.1208,41.7479 C35.4313,41.3729 34.4958,40.5271 33.4646,38.9646 L29.6521,41.1542 C30.0896,42.1542 30.5896,42.5896 31.3396,43.4646 C34.9646,47.1229 44.0271,46.9354 45.6542,41.3729 C45.7146,41.1854 46.1542,39.9042 45.8083,37.9354 L45.9042,38.075 Z M27.1896,22.9812 L22.5063,22.9812 C22.5063,27.0187 22.4875,31.0312 22.4875,35.075 C22.4875,37.6417 22.6187,39.9979 22.2,40.7229 C21.5125,42.1583 19.7417,41.975 18.9375,41.7229 C18.1125,41.3146 17.6938,40.7521 17.2083,39.9417 C17.0771,39.7229 16.9792,39.5333 16.9438,39.5333 L13.1417,41.8771 C13.7771,43.1896 14.7042,44.3187 15.9,45.0375 C17.6812,46.1 20.075,46.4437 22.5812,45.8812 C24.2125,45.4104 25.6187,44.4417 26.3542,42.9417 C27.4167,41.0042 27.1917,38.6292 27.1812,35.9708 C27.2062,31.6917 27.1812,27.4104 27.1812,23.0979 L27.1896,22.9812 Z" id="Shape"></path>
        </g>
    </g>
</svg>

<svg width="50" height="50" xmlns="http://www.w3.org/2000/svg"><path d="M0 0h50v50H0V0zm45.904 38.075c-.364-2.281-1.85-4.198-6.256-5.985-1.533-.72-3.238-1.22-3.744-2.375-.19-.688-.219-1.063-.096-1.47.313-1.345 1.907-1.75 3.157-1.374.812.25 1.562.875 2.033 1.875 2.154-1.409 2.154-1.409 3.656-2.344-.562-.875-.842-1.252-1.22-1.625-1.313-1.469-3.061-2.219-5.905-2.154l-1.469.185c-1.408.344-2.75 1.094-3.562 2.094-2.375 2.69-1.69 7.377 1.185 9.315 2.844 2.125 7.002 2.591 7.534 4.593.5 2.438-1.813 3.22-4.096 2.938-1.69-.375-2.625-1.22-3.656-2.783l-3.813 2.19c.438 1 .938 1.435 1.688 2.31 3.625 3.658 12.687 3.47 14.314-2.092.06-.188.5-1.469.154-3.438l.096.14zM27.19 22.981h-4.684c0 4.038-.018 8.05-.018 12.094 0 2.567.13 4.923-.288 5.648-.688 1.435-2.458 1.252-3.262 1-.825-.408-1.244-.97-1.73-1.781-.13-.22-.229-.409-.264-.409l-3.802 2.344c.635 1.313 1.562 2.442 2.758 3.16 1.781 1.063 4.175 1.407 6.681.844 1.631-.47 3.038-1.44 3.773-2.94 1.063-1.937.838-4.312.827-6.97.025-4.28 0-8.56 0-12.873l.009-.117z" fill="#133A94" fill-rule="nonzero"/></svg>
